symbols/web/signal_wifi_0_bar/materialsymbolsrounded/signal_wifi_0_bar_gradN25_20px.svg

<svg xmlns="http://www.w3.org/2000/svg" height="20" width="20"><path d="M10 16.958q-.146 0-.302-.052t-.281-.198L.875 8.146q-.271-.25-.26-.594.01-.344.281-.573 1.875-1.667 4.219-2.562Q7.458 3.521 10 3.521t4.885.896q2.344.895 4.24 2.562.25.229.26.573.011.344-.239.594l-8.563 8.562q-.125.146-.271.198-.145.052-.312.052Zm0-2 7.333-7.333q-1.604-1.208-3.468-1.833Q12 5.167 10 5.167q-1.979 0-3.865.625-1.885.625-3.468 1.833Z"/></svg>

<svg xmlns="http://www.w3.org/2000/svg" height="20" width="20"><path d="M10 16.958Q9.854 16.958 9.698 16.906Q9.542 16.854 9.417 16.708L0.875 8.146Q0.604 7.896 0.615 7.552Q0.625 7.208 0.896 6.979Q2.771 5.312 5.115 4.417Q7.458 3.521 10 3.521Q12.542 3.521 14.885 4.417Q17.229 5.312 19.125 6.979Q19.375 7.208 19.385 7.552Q19.396 7.896 19.146 8.146L10.583 16.708Q10.458 16.854 10.312 16.906Q10.167 16.958 10 16.958ZM10 14.958 17.333 7.625Q15.729 6.417 13.865 5.792Q12 5.167 10 5.167Q8.021 5.167 6.135 5.792Q4.25 6.417 2.667 7.625Z"/></svg>
